public/im/ic_im_replace.svg

<?xml version="1.0" encoding="UTF-8"?>
<svg width="16px" height="16px" viewBox="0 0 16 16" version="1.1" xmlns="http://www.w3.org/2000/svg" xmlns:xlink="http://www.w3.org/1999/xlink">
    <!-- Generator: Sketch 63.1 (92452) - https://sketch.com -->
    <title>ic_im_document_replace</title>
    <desc>Created with Sketch.</desc>
    <g id="ic_im_document_replace" stroke="none" stroke-width="1" fill="none" fill-rule="evenodd">
        <g id="替换" fill-rule="nonzero">
            <rect id="矩形" fill="#000000" opacity="0" x="0" y="0" width="16" height="16"></rect>
            <path d="M10.5074355,5.0519135 C10.5110355,4.99080301 10.5158355,4.92663699 10.5212355,4.85941544 L10.5638355,2.26833038 C10.5669697,2.15603312 10.6364268,2.05680038 10.7396357,2.01716624 C10.8425726,1.97805102 10.9585263,2.00715156 11.031836,2.09049884 L13.9460387,5.52429764 C14.0060388,5.60618571 14.0168388,5.71618461 13.9742388,5.80907256 C13.9319552,5.90187638 13.842395,5.9629239 13.7420385,5.96734874 L11.7056366,5.96734874 C11.6695193,5.97643651 11.6324393,5.98095205 11.5952365,5.98079711 L2.45362778,5.98079711 C2.33300707,5.98046932 2.21745299,5.93135545 2.13238632,5.844256 C2.04731965,5.75715655 1.99970867,5.63920634 2.00002576,5.51635327 C2.00002576,5.25968919 2.20282754,5.05191349 2.45362778,5.0519135 L10.5074355,5.0519135 Z M5.43143062,9.03265126 L13.5392383,9.03265126 C13.7894386,9.03265126 13.9928388,9.24042695 13.9928388,9.49709103 C13.9928388,9.75375511 13.7894386,9.96153081 13.5392383,9.96153081 L5.49203067,9.96153081 L5.47883066,10.1405846 L5.43623063,12.7316696 C5.43309641,12.8439669 5.3636393,12.9431996 5.26043045,12.9828338 C5.15749354,13.021949 5.04153984,12.9928484 4.96823018,12.9095012 L2.0540274,9.47509126 C1.99395308,9.39265999 1.98312417,9.28330542 2.02582738,9.19031634 C2.06811092,9.09751251 2.15767113,9.03646499 2.2580276,9.03204015 L5.43203062,9.03204015 L5.43143062,9.03265126 Z" id="形状" fill="#999999"></path>
        </g>
    </g>
</svg>

<svg xmlns="http://www.w3.org/2000/svg" width="16" height="16" viewBox="0 0 16 16"><title>ic_im_document_replace</title><path fill="#999" fill-rule="nonzero" d="M10.507 5.052l.014-.193.043-2.59a.277.277 0 0 1 .176-.252.264.264 0 0 1 .292.073l2.914 3.434c.06.082.07.192.028.285a.269.269 0 0 1-.232.158h-2.036a.445.445 0 0 1-.11.014H2.453a.45.45 0 0 1-.322-.137A.468.468 0 0 1 2 5.516c0-.256.203-.464.454-.464h8.053zm-5.076 3.98h8.108a.46.46 0 0 1 .454.465.46.46 0 0 1-.454.465H5.492l-.013.179-.043 2.59a.277.277 0 0 1-.176.252.264.264 0 0 1-.292-.073L2.054 9.475a.284.284 0 0 1-.028-.285.269.269 0 0 1 .232-.158h3.174z"/></svg>
